X: 2163
T: Polska efter Johan August Ericsson
S: efter Johan August Ericsson
B: [[http://www.smus.se/earkiv/fmk/browselarge.php?lang=sw&katalogid=M+19&bildnr=00022|SMUS - katalog M19 bild 22]] (nr 67)
B: [[Notböcker/Johan August Ericssons notbok]]
O: Södermanland
R: Polska
Z: Nils L, 2011-11-18
M: 3/4
L: 1/16
K: G
g2ga (ba)(gf) g4 | G2GA B2AG F2D2 | G2FG A2GA B2A2 | GABc d4 D4 ::
b2bd' a2ac' g2gb | abag fgfe d2c2 | B2BA G2Gg f2fg | abag g4 G4 :|
(:musicend:)
(:music:)
